flaticon/pins-and-locations/placeholder-20.svg

<svg xmlns="http://www.w3.org/2000/svg" width="32" height="32" viewBox="0 0 24 24">
    <path d="M15.199219 6.285156C14.601562 5.128906 13.386719 4.398438 12.039062 4.398438 10.398438 4.398438 8.960938 5.519531 8.558594 7.121094 8.480469 7.320312 8.640625 7.558594 8.839844 7.601562 8.839844 7.601562 8.878906 7.601562 8.921875 7.601562 9.078125 7.601562 9.238281 7.480469 9.28125 7.28125 9.601562 6.078125 10.71875 5.199219 12 5.199219 12.953125 5.199219 13.796875 5.660156 14.3125 6.398438L13.601562 6.398438 13.601562 7.199219 16 7.199219 16 4.800781 15.199219 4.800781zM15.199219 8C15 8 14.800781 8.160156 14.761719 8.359375 14.601562 9.761719 13.398438 10.800781 12 10.800781 10.898438 10.800781 9.914062 10.148438 9.457031 9.199219L10.398438 9.199219 10.398438 8.398438 8 8.398438 8 10.800781 8.800781 10.800781 8.800781 9.652344C9.402344 10.820312 10.632812 11.601562 12 11.601562 13.800781 11.601562 15.359375 10.238281 15.558594 8.441406 15.558594 8.238281 15.398438 8.039062 15.199219 8zM15.199219 8"/>
    <path d="M 12 0 C 7.601562 0 4 3.601562 4 8 C 4 10.160156 4.640625 11.480469 5.558594 13.28125 C 5.679688 13.558594 5.839844 13.839844 6 14.160156 C 8.238281 18.761719 11.640625 23.761719 11.679688 23.839844 C 11.761719 23.921875 11.878906 24 12 24 C 12.121094 24 12.238281 23.921875 12.320312 23.800781 C 12.359375 23.761719 15.761719 18.761719 18 14.160156 C 18.160156 13.839844 18.28125 13.558594 18.441406 13.28125 C 19.359375 11.480469 20 10.160156 20 8 C 20 3.601562 16.398438 0 12 0 Z M 17.71875 12.878906 C 17.601562 13.199219 17.441406 13.480469 17.28125 13.800781 C 15.480469 17.480469 12.921875 21.480469 12 22.839844 C 11.078125 21.480469 8.519531 17.519531 6.71875 13.800781 C 6.558594 13.519531 6.441406 13.199219 6.28125 12.921875 C 5.398438 11.160156 4.800781 9.960938 4.800781 8 C 4.800781 4.039062 8.039062 0.800781 12 0.800781 C 15.960938 0.800781 19.199219 4.039062 19.199219 8 C 19.199219 9.960938 18.601562 11.160156 17.71875 12.878906 Z M 17.71875 12.878906"/>
</svg>

<svg xmlns="http://www.w3.org/2000/svg" width="32" height="32" viewBox="0 0 24 24">
    <path d="M15.2 6.285c-.598-1.156-1.813-1.887-3.16-1.887a3.595 3.595 0 0 0-3.481 2.723c-.079.2.082.438.28.48h.083c.156 0 .316-.12.36-.32A2.828 2.828 0 0 1 12 5.2a2.8 2.8 0 0 1 2.313 1.2h-.711v.8H16V4.801h-.8zm0 0M15.2 8c-.2 0-.4.16-.438.36-.16 1.402-1.364 2.44-2.762 2.44a2.84 2.84 0 0 1-2.543-1.6h.941v-.802H8v2.403h.8V9.652a3.613 3.613 0 0 0 3.2 1.95c1.8 0 3.36-1.364 3.559-3.16a.467.467 0 0 0-.36-.442zm0 0"/>
    <path d="M12 0C7.602 0 4 3.602 4 8c0 2.16.64 3.48 1.559 5.281.12.278.28.559.441.88 2.238 4.6 5.64 9.6 5.68 9.679.082.082.199.16.32.16s.238-.078.32-.2c.04-.038 3.442-5.038 5.68-9.64.16-.32.281-.601.441-.879C19.36 11.481 20 10.161 20 8c0-4.398-3.602-8-8-8zm5.719 12.879c-.117.32-.278.601-.438.922-1.8 3.68-4.36 7.68-5.281 9.039-.922-1.36-3.48-5.32-5.281-9.04-.16-.28-.278-.6-.438-.878C5.398 11.16 4.801 9.96 4.801 8 4.8 4.04 8.039.8 12 .8c3.96 0 7.2 3.24 7.2 7.2 0 1.96-.598 3.16-1.481 4.879zm0 0"/>
</svg>
